src/assets/icons/letters,fancy,sans-p.svg

<svg width="48" height="48" viewBox="0 0 48 48" fill="none" xmlns="http://www.w3.org/2000/svg">
<g clip-path="url(#clip0_86:287)">
<path d="M12.5792 38H18.7298V28.5682H23.9002C30.5906 28.5682 34.4826 24.5767 34.4826 18.767C34.4826 12.9858 30.6616 8.90909 24.0565 8.90909H12.5792V38ZM18.7298 23.6392V13.9375H22.8775C26.4286 13.9375 28.1474 15.8693 28.1474 18.767C28.1474 21.6506 26.4286 23.6392 22.9059 23.6392H18.7298Z" fill="black"/>
</g>
<defs>
<clipPath id="clip0_86:287">
<rect width="48" height="48" fill="white"/>
</clipPath>
</defs>
</svg>

<svg xmlns="http://www.w3.org/2000/svg" width="48" height="48" fill="none" viewBox="0 0 48 48">
  <g clip-path="url(#clip0_86:287)">
    <path fill="#000" d="M12.58 38h6.15v-9.432h5.17c6.69 0 10.583-3.991 10.583-9.801 0-5.781-3.821-9.858-10.426-9.858H12.579V38zm6.15-14.36v-9.703h4.148c3.55 0 5.27 1.932 5.27 4.83 0 2.884-1.72 4.872-5.242 4.872H18.73z"/>
  </g>
  <defs>
    <clipPath id="clip0_86:287">
      <path fill="#fff" d="M0 0h48v48H0z"/>
    </clipPath>
  </defs>
</svg>
